src/Components/Media/Icon/instagram.svg

<svg xmlns="http://www.w3.org/2000/svg" id="Слой_1" x="0" y="0" version="1.1" viewBox="0 0 35 35" xml:space="preserve"><style>.st0{fill:#01ffff}</style><path d="M17.5 35.01H9.9a9.41 9.41 0 0 1-6.05-2.17 9.496 9.496 0 0 1-3.37-4.96c-.27-.93-.42-1.9-.45-2.87-.04-4.84 0-9.68-.03-14.52-.07-2.46.75-4.87 2.3-6.77A9.575 9.575 0 0 1 7.88.31C8.74.13 9.62.03 10.5.02c4.63-.03 9.26-.03 13.89 0 1.46-.04 2.91.22 4.26.75 1.5.61 2.83 1.56 3.9 2.78 1.17 1.38 1.97 3.03 2.31 4.81.1.38.14.78.14 1.18 0 5.03-.02 10.07 0 15.11.07 2.24-.61 4.43-1.92 6.25a9.653 9.653 0 0 1-6.03 3.91c-.64.13-1.3.19-1.95.2-2.54.01-5.07 0-7.6 0zm.06-3.23c2.44 0 4.88-.03 7.31 0 1.28.05 2.55-.29 3.65-.96 1.99-1.25 3.12-3.05 3.15-5.38.06-5.24.03-10.49 0-15.74a5.965 5.965 0 0 0-1.54-3.87c-1.45-1.69-3.33-2.42-5.54-2.41h-9.21c-2.04 0-4.08.02-6.12.1-1.47.09-2.86.73-3.88 1.79a6.575 6.575 0 0 0-2.06 4.85v14.62c0 .36.06.72.09 1.09.13 1.68.94 3.23 2.24 4.3a6.213 6.213 0 0 0 4.2 1.61c2.57 0 5.14.01 7.7.01h.01z" class="st0"/><path d="M17.5 26.72a8.984 8.984 0 0 1-9.1-8.88v-.23c-.06-4.97 3.93-9.04 8.9-9.1h.23c4.79-.04 9.32 3.75 9.09 9.64-.18 4.46-4.06 8.69-9.12 8.57zm5.79-9.04c.14-3.26-2.71-5.85-5.71-5.86a5.82 5.82 0 0 0-5.86 5.78 5.82 5.82 0 0 0 5.78 5.86 5.75 5.75 0 0 0 5.79-5.71v-.07zM24.76 8.25c-.08-1.13.76-2.11 1.89-2.19.06 0 .13-.01.19-.01 1.17-.04 2.16.88 2.21 2.05v.17c.03 1.17-.9 2.14-2.07 2.17h-.1c-1.12.05-2.07-.81-2.12-1.93a1.13 1.13 0 0 1 0-.26z" class="st0"/></svg>

<?xml version="1.0" encoding="utf-8"?>
<!-- Generator: Adobe Illustrator 23.0.1, SVG Export Plug-In . SVG Version: 6.00 Build 0)  -->
<svg version="1.1" id="Слой_1" xmlns="http://www.w3.org/2000/svg" xmlns:xlink="http://www.w3.org/1999/xlink" x="0px" y="0px"
	 viewBox="0 0 35 35" style="enable-background:new 0 0 35 35;" xml:space="preserve">
<style type="text/css">
	.st0{fill:#01FFFF;}
</style>
<g>
	<path class="st0" d="M17.5,35.01c-2.53,0-5.06,0-7.6,0c-2.21,0.01-4.35-0.76-6.05-2.17c-1.63-1.25-2.81-2.98-3.37-4.96
		c-0.27-0.93-0.42-1.9-0.45-2.87c-0.04-4.84,0-9.68-0.03-14.52c-0.07-2.46,0.75-4.87,2.3-6.77c1.4-1.76,3.38-2.96,5.58-3.41
		c0.86-0.18,1.74-0.28,2.62-0.29c4.63-0.03,9.26-0.03,13.89,0c1.46-0.04,2.91,0.22,4.26,0.75c1.5,0.61,2.83,1.56,3.9,2.78
		c1.17,1.38,1.97,3.03,2.31,4.81C34.96,8.74,35,9.14,35,9.54c0,5.03-0.02,10.07,0,15.11c0.07,2.24-0.61,4.43-1.92,6.25
		c-1.43,2.03-3.59,3.43-6.03,3.91c-0.64,0.13-1.3,0.19-1.95,0.2C22.56,35.02,20.03,35.01,17.5,35.01z M17.56,31.78
		c2.44,0,4.88-0.03,7.31,0c1.28,0.05,2.55-0.29,3.65-0.96c1.99-1.25,3.12-3.05,3.15-5.38c0.06-5.24,0.03-10.49,0-15.74
		c-0.03-1.43-0.58-2.81-1.54-3.87c-1.45-1.69-3.33-2.42-5.54-2.41c-3.07,0-6.15,0-9.21,0c-2.04,0-4.08,0.02-6.12,0.1
		C7.79,3.61,6.4,4.25,5.38,5.31C4.05,6.57,3.3,8.32,3.32,10.16c0,4.87,0,9.74,0,14.62c0,0.36,0.06,0.72,0.09,1.09
		c0.13,1.68,0.94,3.23,2.24,4.3c1.15,1.04,2.65,1.62,4.2,1.61c2.57,0,5.14,0.01,7.7,0.01H17.56z"/>
	<path class="st0" d="M17.5,26.72c-4.97,0.06-9.04-3.91-9.1-8.88c0-0.08,0-0.15,0-0.23c-0.06-4.97,3.93-9.04,8.9-9.1
		c0.08,0,0.16,0,0.23,0c4.79-0.04,9.32,3.75,9.09,9.64C26.44,22.61,22.56,26.84,17.5,26.72z M23.29,17.68
		c0.14-3.26-2.71-5.85-5.71-5.86c-3.22-0.02-5.84,2.57-5.86,5.78c-0.02,3.22,2.57,5.84,5.78,5.86c3.17,0.02,5.77-2.53,5.79-5.71
		C23.29,17.73,23.29,17.7,23.29,17.68z"/>
	<path class="st0" d="M24.76,8.25c-0.08-1.13,0.76-2.11,1.89-2.19c0.06,0,0.13-0.01,0.19-0.01C28.01,6.01,29,6.93,29.05,8.1
		c0,0.06,0,0.11,0,0.17c0.03,1.17-0.9,2.14-2.07,2.17c-0.03,0-0.07,0-0.1,0c-1.12,0.05-2.07-0.81-2.12-1.93
		C24.75,8.42,24.75,8.34,24.76,8.25z"/>
</g>
</svg>
